icons/flask-line.svg

<svg xmlns="http://www.w3.org/2000/svg" width="24" height="24" fill="none"><g clip-path="url(#a)"><g><path fill="#121212" d="M15.9998 2V4H14.9998V7.243C14.9998 8.401 15.2508 9.544 15.7358 10.595L20.0177 19.871C20.3647 20.624 20.0358 21.515 19.2838 21.861C19.0868 21.953 18.8728 22 18.6558 22H5.34375C4.51575 22 3.84375 21.328 3.84375 20.5C3.84375 20.283 3.89075 20.068 3.98175 19.871L8.26375 10.595C8.74875 9.545 8.99975 8.401 8.99975 7.243V4H7.99975V2H15.9998ZM13.3877 10.001H10.6118C10.5078 10.364 10.3818 10.722 10.2378 11.072L10.0798 11.433L6.12475 20H17.8738L13.9198 11.433C13.7058 10.969 13.5278 10.49 13.3877 10.001ZM10.9998 7.243C10.9998 7.496 10.9897 7.749 10.9707 8.001H13.0288C13.0188 7.88 13.0128 7.759 13.0078 7.637L12.9998 7.243V4H10.9998V7.243Z"/></g></g><defs><clipPath id="a"><rect width="24" height="24" fill="white"/></clipPath></defs></svg>

<svg width="24" height="24" fill="none" xmlns="http://www.w3.org/2000/svg"><g clip-path="url(#a)"><path d="M16 2v2h-1v3.243c0 1.158.25 2.301.736 3.352l4.282 9.276A1.5 1.5 0 0 1 18.656 22H5.344a1.5 1.5 0 0 1-1.362-2.129l4.282-9.276A7.994 7.994 0 0 0 9 7.243V4H8V2h8Zm-2.612 8.001h-2.776c-.104.363-.23.721-.374 1.071l-.158.361L6.125 20h11.749l-3.954-8.567a9.99 9.99 0 0 1-.532-1.432ZM11 7.243c0 .253-.01.506-.03.758h2.059a8.777 8.777 0 0 1-.021-.364L13 7.243V4h-2v3.243Z" /></g><defs><clipPath id="a"><path fill="#fff" d="M0 0h24v24H0z"/></clipPath></defs></svg>
